public/assets/images/icons/secured-visa.svg

<svg width="193" height="193" viewBox="0 0 193 193" fill="none" xmlns="http://www.w3.org/2000/svg">
    <mask id="mask0_4411_19866" style="mask-type:alpha" maskUnits="userSpaceOnUse" x="0" y="0" width="193" height="193">
        <rect width="193" height="193" fill="white"/>
    </mask>
        <g mask="url(#mask0_4411_19866)">
        <path d="M67.4698 125.342H83.1571L92.9737 67.7812H77.2784L67.4698 125.342Z" fill="white"/>
        <path d="M38.952 107.099L37.3139 101.171C34.2838 94.0299 25.6816 83.7735 15.5825 77.3097L29.6316 125.312L46.2308 125.283L70.9358 67.832L54.3165 67.8441L38.952 107.099Z" fill="white"/>
        <path d="M24.5234 67.2891H0.201739L0 68.4349C18.9272 73.0265 31.4512 84.0899 36.648 97.3926L31.3584 71.9654C30.4465 68.4592 27.8037 67.4141 24.5234 67.2891Z" fill="white"/>
        <path d="M136.509 81.0196L137.925 81.6854L140.047 69.2098C136.941 68.0437 132.071 66.793 125.994 66.793C110.493 66.793 99.5664 74.6003 99.4816 85.7887C99.3808 94.056 107.265 98.6718 113.22 101.428C119.333 104.252 121.382 106.047 121.354 108.569C121.306 112.422 116.48 114.19 111.973 114.19C105.691 114.19 102.354 113.322 97.202 111.176L95.1805 110.256L92.9735 123.139C96.6452 124.749 103.42 126.133 110.452 126.205C126.942 126.205 137.659 118.491 137.772 106.536C137.84 99.9952 133.656 95.0042 124.59 90.9089C119.103 88.2379 115.746 86.4626 115.778 83.7673C115.778 81.3747 118.627 78.8166 124.768 78.8166C129.9 78.7359 133.62 79.8576 136.509 81.0196Z" fill="white"/>
        <path fill-rule="evenodd" clip-rule="evenodd" d="M168.186 67.8438C164.422 67.8438 161.622 68.8686 159.967 72.6209L136.674 125.372H153.148C153.148 125.372 155.836 118.279 156.445 116.725C158.248 116.725 174.254 116.749 176.534 116.749C177.002 118.759 178.447 125.372 178.447 125.372H193L180.307 67.8438H168.186ZM167.21 88.8569C167.125 89.0143 168.489 85.5282 169.3 83.3615L170.357 88.3243C170.357 88.3243 173.363 102.067 173.992 104.944H160.96C162.251 101.639 167.21 88.8569 167.21 88.8569Z" fill="white"/>
    </g>
</svg>

<svg width="193" height="193" fill="none" xmlns="http://www.w3.org/2000/svg"><mask id="a" style="mask-type:alpha" maskUnits="userSpaceOnUse" x="0" y="0" width="193" height="193"><path fill="#fff" d="M0 0h193v193H0z"/></mask><g mask="url(#a)" fill="#fff"><path d="M67.47 125.342h15.687l9.817-57.56H77.278l-9.808 57.56zM38.952 107.099l-1.638-5.928c-3.03-7.141-11.632-17.398-21.732-23.861l14.05 48.002 16.599-.029 24.705-57.451-16.62.012L38.953 107.1z"/><path d="M24.523 67.29H.202L0 68.434c18.927 4.591 31.451 15.655 36.648 28.958l-5.29-25.428c-.912-3.506-3.554-4.55-6.835-4.676zM136.509 81.02l1.416.665 2.122-12.475c-3.106-1.166-7.976-2.417-14.053-2.417-15.501 0-26.428 7.807-26.512 18.996-.101 8.267 7.783 12.883 13.738 15.639 6.113 2.824 8.162 4.619 8.134 7.141-.048 3.853-4.874 5.621-9.381 5.621-6.282 0-9.619-.868-14.771-3.014l-2.022-.92-2.207 12.883c3.672 1.61 10.447 2.994 17.479 3.066 16.49 0 27.207-7.714 27.32-19.669.068-6.54-4.116-11.532-13.182-15.627-5.487-2.671-8.844-4.446-8.812-7.142 0-2.392 2.849-4.95 8.99-4.95 5.132-.081 8.852 1.04 11.741 2.203z"/><path fill-rule="evenodd" clip-rule="evenodd" d="M168.186 67.844c-3.764 0-6.564 1.025-8.219 4.777l-23.293 52.751h16.474s2.688-7.093 3.297-8.647c1.803 0 17.809.024 20.089.024.468 2.01 1.913 8.623 1.913 8.623H193l-12.693-57.528h-12.121zm-.976 21.013c-.085.157 1.279-3.329 2.09-5.495l1.057 4.962 3.635 16.62H160.96a14909.5 14909.5 0 006.25-16.087z"/></g></svg>
